public/icon/svg/InfluxDB.svg

<?xml version="1.0" encoding="UTF-8"?>
<svg width="1024px" height="1024px" viewBox="0 0 1024 1024" version="1.1" xmlns="http://www.w3.org/2000/svg" xmlns:xlink="http://www.w3.org/1999/xlink">
    <title>InfluxDB</title>
    <g id="ICON-新版方图标" stroke="none" stroke-width="1" fill="none" fill-rule="evenodd">
        <g id="InfluxDB">
            <rect id="蒙版路径" fill="#FFFFFF" x="0" y="0" width="1024" height="1024"></rect>
            <path d="M491.28,246.88 L689.76,308 C697.76,310.24 697.76,313.84 689.76,316 L585.76,340 C576.917081,341.673726 567.808654,338.994777 561.28,332.8 L488.64,254.4 C481.92,248 483.36,244.72 491.28,246.88 Z M614.96,603.04 C617.12,611.04 612.08,615.28 604.16,613.12 L389.84,546.88 C381.84,544.72 380.4,538.24 386.24,532.56 L550.24,380 C556.08,374.24 562.56,376.4 564.64,384.24 L614.96,603.04 Z M261.76,408.72 L435.92,246.88 C441.997986,241.431523 451.339723,241.932612 456.8,248 L544,341.84 C549.573144,347.788627 549.287006,357.123868 543.36,362.72 L368.96,524.56 C362.989725,530.112054 353.653648,529.79012 348.08,523.84 L261.04,429.68 C255.478874,423.682775 255.800445,414.321477 261.76,408.72 Z M304,665.6 L258.24,463.44 C256.08,455.44 259.68,454 264.72,459.84 L337.36,538.24 C343.19351,545.238218 345.36056,554.589188 343.2,563.44 L311.2,665.6 C309.28,673.44 305.68,673.44 304,665.6 Z M558.88,783.52 L331.52,713.76 C323.668807,711.298944 319.201212,703.03744 321.44,695.12 L360,572.8 C362.389447,564.890088 370.712626,560.389142 378.64,562.72 L605.6,632.48 C613.609264,634.767932 618.259555,643.102684 616,651.12 L577.52,773.44 C575.058944,781.291193 566.79744,785.758788 558.88,783.52 L558.88,783.52 Z M760,618.08 L608,759.12 C602.24,764.88 599.36,762.64 601.52,754.8 L633.12,652.64 C636.010084,644.067888 643.064438,637.556177 651.84,635.36 L755.84,611.36 C764.64,609.52 766,613.12 760,618.08 L760,618.08 Z M776.56,587.92 L651.68,616.64 C647.871299,617.609316 643.833456,617.023948 640.45681,615.012968 C637.080164,613.001988 634.642026,609.730549 633.68,605.92 L580.48,373.92 C579.514955,370.110386 580.113349,366.073052 582.141914,362.707136 C584.17048,359.34122 587.460764,356.92623 591.28,356 L716.4,328 C720.209756,327.008235 724.258028,327.583835 727.64036,329.598202 C731.022691,331.612568 733.45721,334.89783 734.4,338.72 L787.6,570.72 C788.529199,574.438398 787.902388,578.374905 785.864259,581.620814 C783.82613,584.866722 780.55284,587.141488 776.8,587.92 L776.56,587.92 Z" id="形状" fill="#020B48" fill-rule="nonzero"></path>
        </g>
    </g>
</svg>

<svg xmlns="http://www.w3.org/2000/svg" width="1024" height="1024"><g fill="none" fill-rule="evenodd"><path fill="#FFF" d="M0 0h1024v1024H0z"/><path fill="#020B48" fill-rule="nonzero" d="M491.28 246.88 689.76 308c8 2.24 8 5.84 0 8l-104 24a28 28 0 0 1-24.48-7.2l-72.64-78.4c-6.72-6.4-5.28-9.68 2.64-7.52m123.68 356.16c2.16 8-2.88 12.24-10.8 10.08l-214.32-66.24c-8-2.16-9.44-8.64-3.6-14.32l164-152.56c5.84-5.76 12.32-3.6 14.4 4.24zm-353.2-194.32 174.16-161.84c6.078-5.448 15.42-4.947 20.88 1.12l87.2 93.84c5.573 5.949 5.287 15.284-.64 20.88l-174.4 161.84c-5.97 5.552-15.306 5.23-20.88-.72l-87.04-94.16c-5.561-5.997-5.24-15.359.72-20.96M304 665.6l-45.76-202.16c-2.16-8 1.44-9.44 6.48-3.6l72.64 78.4a28.72 28.72 0 0 1 5.84 25.2l-32 102.16c-1.92 7.84-5.52 7.84-7.2 0m254.88 117.92-227.36-69.76c-7.851-2.461-12.319-10.723-10.08-18.64L360 572.8c2.39-7.91 10.713-12.41 18.64-10.08l226.96 69.76c8.01 2.288 12.66 10.623 10.4 18.64l-38.48 122.32c-2.461 7.851-10.723 12.319-18.64 10.08M760 618.08 608 759.12c-5.76 5.76-8.64 3.52-6.48-4.32l31.6-102.16a26.56 26.56 0 0 1 18.72-17.28l104-24c8.8-1.84 10.16 1.76 4.16 6.72m16.56-30.16-124.88 28.72a14.8 14.8 0 0 1-18-10.72l-53.2-232a14.72 14.72 0 0 1 10.8-17.92l125.12-28a14.72 14.72 0 0 1 18 10.72l53.2 232a14.08 14.08 0 0 1-10.8 17.2z"/></g></svg>
